X:80
T:Killavil
Z: id:dc-jig-65
M:6/8
L:1/8
K:E Dorian
BEE BEE|Bdf edB|BAG F3|DFA dAF|!
BEE BEE|Bdf edB|BAF dFF|FED E3:|!
Bef g3|f3 edB|BAG F3|DFA dAF|!
Bef g3|f3 edB|BAF dFF|FED E3:|!

